packages/flutter/assets/icons/deposit.svg

<?xml version="1.0" encoding="UTF-8"?>
<svg width="24px" height="24px" viewBox="0 0 24 24" version="1.1" xmlns="http://www.w3.org/2000/svg" xmlns:xlink="http://www.w3.org/1999/xlink">
    <title>deposit</title>
    <g id="deposit" stroke="none" stroke-width="1" fill="none" fill-rule="evenodd">
        <path d="M17.3146509,4 C17.5601108,4 17.7642593,4.17687516 17.8065952,4.41012437 L17.8146509,4.5 L17.8146509,14.5 C17.8146509,14.7454599 17.6377758,14.9496084 17.4045265,14.9919443 L17.3146509,15 L15.0046503,15.0005157 C14.9677277,16.370517 14.4799913,17.5273221 13.5443931,18.4440765 L12.3188293,19.6531451 L11.674,20.301 L11.6742782,21.6002308 C11.6742782,21.8456907 11.497403,22.0498392 11.2641538,22.0921751 L11.1742782,22.1002308 C10.9288183,22.1002308 10.7246698,21.9233556 10.6823339,21.6901064 L10.6742782,21.6002308 L10.6742782,20.0983865 C10.6742782,19.9685877 10.724754,19.8438759 10.8150341,19.750617 L11.548916,19.0086375 C11.901841,18.6566017 12.333621,18.2304183 12.8445159,17.7298133 C13.5834213,17.0057901 13.9690704,16.1047707 14.0043109,15.000849 L12.1133086,15.0003529 C12.5563511,16.1841137 12.2220244,17.3775817 11.1086152,18.507004 L10.9442088,18.6679517 C10.7435763,18.8576915 10.427117,18.8488612 10.2373771,18.6482287 C10.0476373,18.4475961 10.0564676,18.1311368 10.2571001,17.941397 C11.6521697,16.6220683 11.6521697,15.4077532 10.251033,14.0372724 C10.0414784,13.8323028 10.0523922,13.4918565 10.2746446,13.3007294 C10.8946311,12.7675688 11.6333713,12.032021 12.4884387,11.095424 C12.9161137,10.6269708 12.902374,10.0747425 12.5644465,9.7949468 C12.1763887,9.4736443 11.4778854,9.59251103 10.6784247,10.3663515 L9.71326198,11.3069157 C8.56640837,12.4317908 7.346652,13.653089 6.05403332,14.9707802 C5.86065562,15.1679088 5.54408774,15.1709495 5.34695915,14.9775718 C5.14983057,14.7841941 5.14678987,14.4676262 5.34016757,14.2704977 L6.43418754,13.1606954 C6.64772281,12.9451762 6.85915571,12.7324426 7.06848643,12.5224942 L7.067,10.713 L4,13.813 L4,21.5952799 C4,21.8407398 3.82312484,22.0448882 3.58987563,22.0872242 L3.5,22.0952799 C3.25454011,22.0952799 3.05039163,21.9184047 3.00805567,21.6851555 L3,21.5952799 L3,13.6085326 C3,13.5031862 3.03324662,13.4012422 3.09396423,13.3167502 L3.14456301,13.2568729 L7.067,9.292 L7.06747601,4.5 C7.06747601,4.22385763 7.29133363,4 7.56747601,4 C7.8129359,4 8.01708438,4.17687516 8.05942034,4.41012437 L8.06747601,4.5 L8.06791754,11.5254294 C8.38392874,11.2119034 8.69482276,10.9051581 9.00060035,10.6051927 L9,4.5 C9,4.22385763 9.22385763,4 9.5,4 C9.74545989,4 9.94960837,4.17687516 9.99194433,4.41012437 L10,4.5 L10,9.63 L10.1381009,9.50378795 C11.2289878,8.53384361 12.4100239,8.36880362 13.2021923,9.0246999 C13.9965835,9.68243655 14.0267188,10.8936394 13.2269581,11.7696563 L13.013,12 L13.525,12 L13.5286096,11.9744111 C13.6476366,11.0989243 14.0855266,10.5408171 14.8578285,10.3525938 L15,10.322 L15,4.5 C15,4.25454011 15.1768752,4.05039163 15.4101244,4.00805567 L15.5,4 C15.7454599,4 15.9496084,4.17687516 15.9919443,4.41012437 L16,4.5 L16,10.7815998 C16,11.0577422 15.7761424,11.2815998 15.5,11.2815998 C14.7474424,11.2815998 14.4951845,11.5874012 14.4951845,12.5 C14.4951845,12.7454599 14.3183093,12.9496084 14.0850601,12.9919443 L13.9951845,13 L12.0549995,13.0020303 C11.9051703,13.1520917 11.7595891,13.2946063 11.6182382,13.4295839 L11.316,13.711 L11.4101225,13.8212414 C11.4592017,13.8809046 11.5062578,13.9406572 11.5512904,14.0004893 L16.814,14 L16.8146509,4.5 C16.8146509,4.25454011 16.9915261,4.05039163 17.2247753,4.00805567 L17.3146509,4 Z M12.5,4 C13.6045695,4 14.5,4.8954305 14.5,6 C14.5,7.1045695 13.6045695,8 12.5,8 C11.3954305,8 10.5,7.1045695 10.5,6 C10.5,4.8954305 11.3954305,4 12.5,4 Z M12.5,5 C11.9477153,5 11.5,5.44771525 11.5,6 C11.5,6.55228475 11.9477153,7 12.5,7 C13.0522847,7 13.5,6.55228475 13.5,6 C13.5,5.44771525 13.0522847,5 12.5,5 Z M22,2.5 C22.2454599,2.5 22.4496084,2.67687516 22.4919443,2.91012437 L22.5,3 L22.5,6 C22.5,6.24545989 22.3231248,6.44960837 22.0898756,6.49194433 L22,6.5 L19.17374,6.5 C18.8975976,6.5 18.67374,6.27614237 18.67374,6 C18.67374,5.75454011 18.8506151,5.55039163 19.0838644,5.50805567 L19.17374,5.5 L21.5,5.5 L21.5,3.5 L3.5,3.5 L3.5,5.5 L5.85725544,5.5 C6.10271533,5.5 6.30686381,5.67687516 6.34919977,5.91012437 L6.35725544,6 C6.35725544,6.24545989 6.18038028,6.44960837 5.94713107,6.49194433 L5.85725544,6.5 L3,6.5 C2.75454011,6.5 2.55039163,6.32312484 2.50805567,6.08987563 L2.5,6 L2.5,3 C2.5,2.75454011 2.67687516,2.55039163 2.91012437,2.50805567 L3,2.5 L22,2.5 Z" id="Shape" fill="#303846"></path>
    </g>
</svg>

<svg xmlns="http://www.w3.org/2000/svg" width="24" height="24" viewBox="0 0 24 24"><path fill-rule="evenodd" d="M17.315 4a.5.5 0 0 1 .492.41l.008.09v10a.5.5 0 0 1-.41.492l-.09.008h-2.31c-.037 1.37-.525 2.527-1.46 3.444l-1.226 1.21-.645.647v1.3a.5.5 0 0 1-.41.491l-.09.008a.5.5 0 0 1-.492-.41l-.008-.09v-1.502a.5.5 0 0 1 .141-.347l.734-.742c.353-.352.785-.779 1.296-1.28.738-.723 1.124-1.624 1.16-2.728h-1.892c.443 1.183.109 2.377-1.004 3.506l-.165.161a.5.5 0 0 1-.687-.727c1.395-1.319 1.395-2.533-.006-3.904a.5.5 0 0 1 .024-.736c.62-.533 1.358-1.269 2.213-2.206.428-.468.414-1.02.076-1.3-.388-.321-1.086-.202-1.886.571l-.965.94a269.56 269.56 0 0 0-3.659 3.665.5.5 0 0 1-.714-.7l1.094-1.11.634-.639-.001-1.809L4 13.813v7.782a.5.5 0 0 1-.41.492l-.09.008a.5.5 0 0 1-.492-.41L3 21.595V13.61a.5.5 0 0 1 .094-.292l.05-.06 3.923-3.965V4.5a.5.5 0 0 1 .992-.09l.008.09v7.025c.317-.313.628-.62.934-.92L9 4.5a.5.5 0 0 1 .992-.09L10 4.5v5.13l.138-.126c1.091-.97 2.272-1.135 3.064-.48.795.658.825 1.87.025 2.746l-.214.23h.512l.004-.026c.119-.875.557-1.433 1.329-1.621l.142-.031V4.5a.5.5 0 0 1 .41-.492L15.5 4a.5.5 0 0 1 .492.41L16 4.5v6.282a.5.5 0 0 1-.5.5c-.753 0-1.005.305-1.005 1.218a.5.5 0 0 1-.41.492l-.09.008-1.94.002c-.15.15-.295.293-.437.428l-.302.281.094.11c.05.06.096.12.141.18L16.814 14V4.5a.5.5 0 0 1 .41-.492l.09-.008zM12.5 4a2 2 0 1 1 0 4 2 2 0 0 1 0-4zm0 1a1 1 0 1 0 0 2 1 1 0 0 0 0-2zM22 2.5a.5.5 0 0 1 .492.41L22.5 3v3a.5.5 0 0 1-.41.492L22 6.5h-2.826a.5.5 0 0 1-.09-.992l.09-.008H21.5v-2h-18v2h2.357a.5.5 0 0 1 .492.41l.008.09a.5.5 0 0 1-.41.492l-.09.008H3a.5.5 0 0 1-.492-.41L2.5 6V3a.5.5 0 0 1 .41-.492L3 2.5h19z"/></svg>
